public/osulogo.svg

<svg width="1000" height="1000" viewBox="0 0 1000 1000" fill="none" xmlns="http://www.w3.org/2000/svg">
<path d="M780.145 365C792.842 365 801.549 374.432 801.549 387.492V508.295C801.549 521.355 792.842 530.787 780.145 530.787C767.086 530.787 758.742 521.355 758.742 508.295V387.492C758.742 374.432 767.086 365 780.145 365ZM780.145 607.694C764.546 607.694 752.212 595.36 752.212 579.761C752.212 564.525 764.546 552.19 780.145 552.19C795.745 552.19 808.079 564.525 808.079 579.761C808.079 595.36 795.745 607.694 780.145 607.694Z" fill="#736998"/>
<path d="M701.968 423.406C715.028 423.406 723.372 432.838 723.372 445.535V525.708C723.372 584.84 686.915 607.694 642.656 607.694C598.035 607.694 561.578 584.84 561.578 525.708V445.535C561.578 432.838 569.922 423.406 582.982 423.406C595.679 423.406 604.385 432.838 604.385 445.535V522.806C604.385 555.092 617.988 567.789 642.656 567.789C666.962 567.789 680.565 555.092 680.565 522.806V445.535C680.565 432.838 689.271 423.406 701.968 423.406Z" fill="#736998"/>
<path d="M440.2 472.381C440.2 484.352 452.534 488.706 476.115 494.147C508.764 502.128 539.963 510.472 539.963 550.74C539.963 589.919 510.941 607.695 469.222 607.695C434.759 607.695 409.727 595.723 398.119 581.938C389.049 571.055 390.138 561.623 398.844 553.279C409.727 542.759 419.159 547.112 425.327 552.553C435.121 561.623 447.093 571.055 470.31 571.055C487.723 571.055 498.607 565.25 498.607 553.642C498.607 542.033 486.998 538.043 456.525 529.699C426.415 521.355 399.57 513.374 399.57 477.46C399.57 437.192 432.219 420.504 468.496 420.504C489.174 420.504 512.755 425.946 527.266 441.545C533.433 447.712 538.149 456.419 527.266 468.39C516.382 479.636 508.401 476.371 500.783 470.567C493.891 465.488 481.919 456.782 463.78 456.782C451.446 456.782 440.2 460.772 440.2 472.381Z" fill="#736998"/>
<path d="M281.815 607.695C229.509 607.695 192 567.661 192 513.797C192 459.569 229.509 419.899 281.815 419.899C334.122 419.899 371.631 459.569 371.631 513.797C371.631 567.661 334.122 607.695 281.815 607.695ZM281.815 567.661C312.098 567.661 331.025 544.368 331.025 513.797C331.025 483.225 312.098 459.569 281.815 459.569C251.533 459.569 232.606 483.225 232.606 513.797C232.606 544.368 251.533 567.661 281.815 567.661Z" fill="#736998"/>
<path d="M950 500C950 748.528 748.528 950 500 950C251.472 950 50 748.528 50 500C50 251.472 251.472 50 500 50C748.528 50 950 251.472 950 500ZM95 500C95 723.675 276.325 905 500 905C723.675 905 905 723.675 905 500C905 276.325 723.675 95 500 95C276.325 95 95 276.325 95 500Z" fill="#736998"/>
<style xmlns="http://www.w3.org/1999/xhtml" id="m40dhswo.5bf">
            .toast {
                position: fixed;
                top: 20px;
                right: 20px;
                background-color: hsl(var(--hsl-d5));
                color: #736998;
                padding: 15px;
                border-radius: 5px;
                box-shadow: 0 2px 10px rgba(0, 0, 0, 0.1);
                opacity: 0;
                transition: opacity 0.5s ease, transform 0.5s ease;
                transform: translateY(-80px);
                z-index: 9999;
            }

            .toast.show {
                opacity: 1;
                transform: translateY(0);
                transition: opacity 0.5s ease, transform 0.5s ease;
            }

            .beatmap-basic-stats {
                color: #fd5;
                display: flex;
                font-size: 11px;
                font-weight: 600;
                justify-content: space-between;
                box-sizing: border-box;
                gap: 2px;
            }

            .beatmap-basic-stats__entry {
                align-items: center;
                display: flex;
                flex: none;
                padding: 3px;
                box-sizing: border-box;
            }
        </style></svg>

<svg xmlns="http://www.w3.org/2000/svg" width="1000" height="1000" fill="none"><path fill="#736998" d="M780.1 365c12.7 0 21.4 9.4 21.4 22.5v120.8c0 13-8.7 22.5-21.4 22.5-13 0-21.4-9.4-21.4-22.5V387.5c0-13 8.4-22.5 21.4-22.5Zm0 242.7a27.7 27.7 0 1 1 0-55.5 27.7 27.7 0 1 1 0 55.5ZM702 423.4c13 0 21.4 9.4 21.4 22.1v80.2c0 59.1-36.5 82-80.7 82-44.7 0-81.1-22.9-81.1-82v-80.2c0-12.7 8.3-22 21.4-22 12.7 0 21.4 9.3 21.4 22v77.3c0 32.3 13.6 45 38.3 45 24.3 0 37.9-12.7 37.9-45v-77.3c0-12.7 8.7-22 21.4-22ZM440.2 472.4c0 12 12.3 16.3 36 21.7 32.6 8 63.8 16.4 63.8 56.6 0 39.2-29 57-70.8 57-34.4 0-59.5-12-71-25.8-9.2-10.8-8-20.3.6-28.6 11-10.5 20.4-6.2 26.5-.7a60 60 0 0 0 45 18.5c17.4 0 28.3-5.9 28.3-17.5s-11.6-15.6-42-23.9c-30.2-8.3-57-16.3-57-52.2 0-40.3 32.6-57 68.9-57 20.7 0 44.3 5.4 58.8 21 6.1 6.2 10.8 15 0 26.9-11 11.2-18.9 8-26.5 2.2a59.9 59.9 0 0 0-37-13.8c-12.4 0-23.6 4-23.6 15.6ZM281.8 607.7c-52.3 0-89.8-40-89.8-93.9 0-54.2 37.5-93.9 89.8-93.9s89.8 39.7 89.8 93.9c0 53.9-37.5 93.9-89.8 93.9Zm0-40c30.3 0 49.2-23.3 49.2-53.9 0-30.6-18.9-54.2-49.2-54.2-30.3 0-49.2 23.6-49.2 54.2s19 53.9 49.2 53.9Z"/><path fill="#736998" d="M950 500a450 450 0 1 1-900 0 450 450 0 0 1 900 0Zm-855 0a405 405 0 1 0 810 0 405 405 0 0 0-810 0Z"/><style xmlns="http://www.w3.org/1999/xhtml" id="m40dhswo.5bf">.toast,.toast.show{transition:opacity .5s ease,transform .5s ease}.toast{position:fixed;top:20px;right:20px;background-color:hsl(var(--hsl-d5));color:#736998;padding:15px;border-radius:5px;box-shadow:0 2px 10px rgba(0,0,0,.1);opacity:0;transform:translateY(-80px);z-index:9999}.toast.show{opacity:1;transform:translateY(0)}.beatmap-basic-stats{color:#fd5;display:flex;font-size:11px;font-weight:600;justify-content:space-between;box-sizing:border-box;gap:2px}.beatmap-basic-stats__entry{align-items:center;display:flex;flex:none;padding:3px;box-sizing:border-box}</style></svg>
